X: 40
T: Sicilian Dance %, 3parts. JNu.41
T: Royal Albert
T: Prince of Wales Contre Dance
M: 6/8
L: 1/8
%Q: 3/8=100
S: James Nuttall MS, c1830?, Rossendale, East Lancs.
R: jig, quadrille
O: England
A: East Lancashire
N: Numbered incorrectly as No 40 in MS
Z: vmp.Manchester Morris Men
K:F
% %sysstaffsep 30
V:1 clef=treble
|: F>GF AGF | c2c c2B | Acf c2B | ABA F2C | FGF AGF | c2c c2f | edc dc=B | c3 c3 :|
|: g2c b2a | gfe fef | g2c b2a | gfe f3 | dbb caa | Bgg Aff | BAG c2E | F3 F3 :|
|: F>GF AGF | c2c c2B | Acf c2B | ABA F2C | FGF AGF | c2c c2f | edc dc=B | c3 c3 :|
|: g2c b2a | gfe fef | g2c b2a | gfe f3 | dbb caa | Bgg Aff | BAG c2E | F3 F3 :|]
V:2 clef=treble
|: A2A cBA | FAcF2E | DFAF2G | EGEF2E | C2C FEC | A2AA2A | GAGG2F | E3E3 :|
|: e2c Gcf | edc dAd | e2Ag2f | edcd3 | d3c3 | B3A3 | GABc2B | BA2A3 :|
|: C3B,A,B, | A,2A,A,2C | A3GFG | F2FF2d | d2cc2B | B2AA2G | FGA GAF | F3E3 :|
|: AcfA2E | EFFF3 | Bcdc2B | AAAA2d | d2cc2B | B2AA2G | FGAc2B | A6 :|]
V:3 clef=bass middle=D,
|: F,3F,3 | F,3F,2F, | F,3F,2B,, | C,2C,F,,3 | F,2F,F,2F, | F,,2F,,F,,2F,, | G,,2G,,G,,2G,, | C,3C,3 :|
|: C3C3 | C3F,3 | C,3C,3 | C,3F,3 | B,3A,3 | G,3E,3 | B,,2B,,C,2C, | F,3F,3 :|
|: F,3C,3 | F,,2F,,F,,3 | F,3C,3 | F,,2F,,F,,3 | F,,6 | F,,6 | F,,3F,,3 | C,6 :|
|: C3C3 | F,2F,F,3 | B,,2B,,C,2C, | F,2F,,F,,2F, | F,A,C F,A,C | F,A,CF,3 | C3C,3 | F,,6 :|]
